X:1
T:Bells of Christmas
T:Bells of Christmas
T:Roy E. Nolte
T:Roy E. Nolte, 1916
T:Public Domain Courtesy of the Cyber Hymnal™
T:Public Domain Courtesy of the Cyber Hymnal™
C:Roy E. Nolte
Z:Public Domain
Z:Courtesy of the Cyber Hymnal™
%%score ( 1 2 ) 3
L:1/8
Q:1/4=105
M:4/4
K:C
V:1 treble 
V:2 treble 
V:3 bass 
V:1
 [Ed]2 [EB]2 [EA]2 [EG]2 | [EA]2 [CE]>[C^D] [CE]4 | [Ec]2 [EB]2 [EA]2 [EG]2 | %3
w: 1.~Bells of Christ- mas|ring far and near,|Peal- ing out their|
w: 2.~Bells of Christ- mas|ring! hark, the chime,|Peal- ing out a|
 [FA]2 [DF]>[^CE] [DF]4 | [Bd]2 [Ac]2 [GB]2 [FA]2 | [DF]>[^CE] [DF][EG] [FA]4 | %6
w: mes- sage of cheer,|Rhym- ing, chim- ing|thro’ the frost- y air,|
w: mes- sage sub- lime;|E- choes soft- ly|steal o’er plain and hill,|
 [FB]2 [FA]2 [EG]2 [DF]2 | [CE]>[B,D] [CE][DF] [EG]4 | [Ec]2 [EB]2 [EA]2 [EG]2 | %9
w: Fling- ing joy- ous|e- choes ev- ery- where;|Tell- ing tid- ings|
w: Ev- er tell- ing,|“Peace on earth, good will!”|Bring- ing joy where|
 [EA]2 [CE]>[C^D] [CE]4 | [Ec]2 [EB]2 [Gd]2 [Gc]2 | [FA]>[F^G] [FA][FB] [FA]4 | %12
w: bless- èd and glad,|O- ver fields in|win- try gar- ments clad,|
w: once sha- dows lay,|Bright- ness o- ver|this glad, hap- py day,|
 [Bd]2 [Ac]2 [GB]2 [FA]2 | [Ec]2 [EG]2 [^D^F]2 [EG]2 | [Ge]4 [Fd]4 | [Ec]4- [Ec] || %16
w: Sweet their mu- sic|swells, Oh, hear the|mer- ry|bells. *|
w: Sweet their mu- sic|swells, Oh, hear the|mer- ry|bells. *|
"^Refrain" G[^FA][=FB] | [Ec]4 [EB]4 | [CE]4- [CE]G[^FA][=FB] | [Ec]4 [EB]4 | %20
w: Oh, mer- ry|Christ- mas|bells, * Your mu- sic|sweet- ly|
w: ||||
 [B,F]4- [B,F]G[GB][Ac] | [Bd]4 [Ac]4 | [GB]4- [GB][FA][GB][Ac] | [GB]4 [FA]4 | %24
w: tells * A mes- sage|o’er the|earth * Of Christ the|Sav- ior’s|
w: ||||
 [EG]4- [EG]G[^FA][=FB] | [Ec]4 [EB]4 | [CE]4- [CE]G[^FA][=FB] | [Ec]4 [EG^c]4 | %28
w: birth; * It sings a-|far and|near, * This bless- èd|sto- ry|
w: ||||
 [Fd]4- [Fd][FA][E^G][FA] | [Bd]2 [Ac]2 [GB]2 [FA]2 | [Ec]2 [EG]2 [^D^F]2 [EG]2 | [Fe]4 [Fd]4 | %32
w: dear, * And brings on|bless- èd Christ- mas|morn, Sweet peace which|ne’er shall|
w: ||||
 [Ec]8 |] %33
w: cease.|
w: |
V:2
 x8 | x8 | x8 | x8 | x8 | x8 | x8 | x8 | x8 | x8 | x8 | x8 | x8 | x8 | x8 | x5 || G x2 | x8 | %18
 x5 G x2 | x8 | x5 G x2 | x8 | x8 | x8 | x5 G x2 | x8 | x5 G x2 | x8 | x8 | x8 | x8 | x8 | x8 |] %33
V:3
 [C,G,]2 [G,,G,]2 [C,G,]2 [G,,G,]2 | [C,G,]2 [G,,G,]2 ([C,G,]E,F,E,) | %2
 [C,G,]2 [G,,G,]2 [C,G,]2 [G,,G,]2 | [C,G,]2 [G,,G,]2 ([D,G,]G,,B,,D,) | G,,2 G,2 G,,2 G,2 | %5
 G,,2 G,2 (G,,B,,D,G,) | G,,2 G,2 G,,2 G,2 | C,>F, E,D, (C,E,G,E,) | %8
 [C,G,]2 [G,,G,]2 [C,G,]2 [G,,G,]2 | [C,G,]2 [G,,G,]2 ([C,G,]E,G,E,) | [C,G,]4 [E,C]4 | %11
 [F,C]2 [F,C]2 (F,A,DG,) | F,2 [A,D]2 F,2 [A,D]2 | G,2 [G,C]2 [_A,C]2 [G,C]2 | %14
 [C,C]2 [G,,G,]2 [A,,A,]2 [B,,B,]2 | ([C,C]2 [G,,G,]2 [C,,C,]) || z3 | %17
 [C,G,]2 [G,,G,]2 [C,G,]2 [G,,G,]2 | ([C,G,]F,G,F, [C,G,]) z3 | [C,G,]2 [G,,G,]2 [C,G,]2 [G,,G,]2 | %20
 ([D,G,]G,,B,,D, G,) z3 | G,,2 G,2 G,,2 G,2 | (G,,A,,B,,D, G,) z3 | G,,2 G,2 G,,2 G,2 | %24
 (C,D,E,G, C) z3 | [C,G,]2 [G,,G,]2 [C,G,]2 [G,,G,]2 | ([C,G,]E,G,E, C,) z3 | [C,G,]4 [E,G,A,^C]4 | %28
 ([F,A,D]A,DA, F,) z3 | F,,2 F,2 F,,2 F,2 | G,,2 [G,C]2 [_A,C]2 [G,C]2 | %31
 [C,C]2 [G,,G,]2 [A,,A,]2 [B,,B,]2 | ([C,C]A,G,E, [C,G,]4) |] %33

